src/assets/PageNationIcon3.svg

<svg width="18" height="15" viewBox="0 0 18 15" fill="none" xmlns="http://www.w3.org/2000/svg">
<path d="M0.515335 6.99999H16.5153V8.99999H0.515335V6.99999Z" fill="black"/>
<path d="M16.1012 9.34307L9.03012 2.272L10.4443 0.857788L17.5154 7.92886L16.1012 9.34307Z" fill="black"/>
<path d="M9.03014 13.5857L16.1012 6.51462L17.5154 7.92886L10.4444 14.9999L9.03014 13.5857Z" fill="black"/>
</svg>

<svg xmlns="http://www.w3.org/2000/svg" width="18" height="15" fill="none"><path fill="#000" d="M.515 7h16v2h-16z"/><path fill="#000" d="m16.101 9.343-7.07-7.071L10.443.858l7.071 7.07z"/><path fill="#000" d="m9.03 13.586 7.071-7.071 1.414 1.414-7.07 7.07z"/></svg>
